X: 31
T:Gan Ainm
M:4/4
L:1/8
R:Reel
D:Session tape - Derrygonelly, Fermanagh 1993
Z:Bernie Stocks
K:G
GB~B2 dB~B2 | cdec dBGB |1c3e dB~B2 | AcBG AGED :|2 c3e dBGB | ADFA G4 ::\
dggf gdBd | d2BG AGEG | dggf gdBd | eaag agef |\
g2dg Bgdg | c2Bc AGEG | c3e dBGB | ADFA G4 :|
<end>
<start>
